img/checked.svg

<svg enable-background="new 0 0 512 512" viewBox="0 0 512 512" xmlns="http://www.w3.org/2000/svg"><path d="m449.716 239.842c-.543-7.535-7.082-13.191-14.628-12.661-7.536.543-13.204 7.092-12.662 14.628.337 4.655.506 9.431.506 14.191 0 109.061-88.726 197.787-197.786 197.787s-197.786-88.727-197.786-197.787 88.726-197.786 197.787-197.786c43.191 0 84.21 13.668 118.62 39.525 6.041 4.538 14.615 3.321 19.154-2.718 4.54-6.04 3.323-14.616-2.717-19.154-39.189-29.447-85.891-45.012-135.058-45.012-124.145-.001-225.146 101-225.146 225.145s101.001 225.145 225.147 225.145 225.145-100.999 225.145-225.145c0-5.414-.195-10.85-.576-16.158z"/><path d="m496.395 61.77c-20.808-20.807-54.666-20.807-75.474 0l-197.11 197.108-69.874-69.875c-20.808-20.807-54.666-20.807-75.474 0-20.808 20.808-20.808 54.666 0 75.474l120.341 120.341c6.895 6.895 15.951 10.342 25.007 10.342 9.057 0 18.113-3.447 25.008-10.342l247.576-247.576c20.806-20.807 20.806-54.663 0-75.472zm-19.346 56.127-247.577 247.578c-3.12 3.12-8.2 3.12-11.32 0l-120.341-120.342c-10.141-10.141-10.141-26.64 0-36.781 5.07-5.072 11.729-7.606 18.39-7.606s13.321 2.535 18.39 7.606l71.882 71.882c4.632 4.631 10.791 7.181 17.339 7.181 6.551 0 12.71-2.551 17.341-7.182l199.115-199.117c10.138-10.141 26.64-10.141 36.781 0 10.14 10.141 10.14 26.64 0 36.781z"/></svg>

<?xml version="1.0" encoding="iso-8859-1"?>
<!-- Generator: Adobe Illustrator 19.0.0, SVG Export Plug-In . SVG Version: 6.00 Build 0)  -->
<svg version="1.1" id="Layer_1" xmlns="http://www.w3.org/2000/svg" xmlns:xlink="http://www.w3.org/1999/xlink" x="0px" y="0px"
	 viewBox="0 0 512 512" style="enable-background:new 0 0 512 512;" xml:space="preserve">
<g>
	<g>
		<path d="M449.716,239.842c-0.543-7.535-7.082-13.191-14.628-12.661c-7.536,0.543-13.204,7.092-12.662,14.628
			c0.337,4.655,0.506,9.431,0.506,14.191c0,109.061-88.726,197.787-197.786,197.787C116.086,453.787,27.36,365.06,27.36,256
			S116.086,58.214,225.147,58.214c43.191,0,84.21,13.668,118.62,39.525c6.041,4.538,14.615,3.321,19.154-2.718
			c4.54-6.04,3.323-14.616-2.717-19.154c-39.189-29.447-85.891-45.012-135.058-45.012C101.001,30.854,0,131.855,0,256
			s101.001,225.145,225.147,225.145S450.292,380.146,450.292,256C450.292,250.586,450.097,245.15,449.716,239.842z"/>
	</g>
</g>
<g>
	<g>
		<path d="M496.395,61.77c-20.808-20.807-54.666-20.807-75.474,0l-197.11,197.108l-69.874-69.875
			c-20.808-20.807-54.666-20.807-75.474,0c-20.808,20.808-20.808,54.666,0,75.474l120.341,120.341
			c6.895,6.895,15.951,10.342,25.007,10.342c9.057,0,18.113-3.447,25.008-10.342l247.576-247.576
			C517.201,116.435,517.201,82.579,496.395,61.77z M477.049,117.897L229.472,365.475c-3.12,3.12-8.2,3.12-11.32,0L97.811,245.133
			c-10.141-10.141-10.141-26.64,0-36.781c5.07-5.072,11.729-7.606,18.39-7.606s13.321,2.535,18.39,7.606l71.882,71.882
			c4.632,4.631,10.791,7.181,17.339,7.181c6.551,0,12.71-2.551,17.341-7.182L440.268,81.116c10.138-10.141,26.64-10.141,36.781,0
			C487.189,91.257,487.189,107.756,477.049,117.897z"/>
	</g>
</g>
<g>
</g>
<g>
</g>
<g>
</g>
<g>
</g>
<g>
</g>
<g>
</g>
<g>
</g>
<g>
</g>
<g>
</g>
<g>
</g>
<g>
</g>
<g>
</g>
<g>
</g>
<g>
</g>
<g>
</g>
</svg>
